!!!COM:	Josquin des Prez
!!!CDT:	~1450-1521/08/27
!!!OPR:	Missa Ave maris stella
!!!ONM:	2
!!!OTL:	Gloria
!!!AGN:	Mass; Gloria
!!!SCT:	NJE 3.1
!!!SCA:	New Josquin Edition 3.1
!!!voices: 4
!!!voices-OPR:	4
**kern	**kern	**kern	**kern
*staff4	*staff3	*staff2	*staff1
*Ivox	*Ivox	*Ivox	*Ivox
*I"Bassus	*I"Tenor	*I"Altus	*I"Superius
*I'B	*I'T	*I'A	*I'S
*>[A,B]	*>[A,B]	*>[A,B]	*>[A,B]
*>Gloria[A]	*>Gloria[A]	*>Gloria[A]	*>Gloria[A]
*>QuiTollis[B]	*>QuiTollis[B]	*>QuiTollis[B]	*>QuiTollis[B]
*clefF4	*clefGv2	*clefGv2	*clefG2
*k[b-]	*k[b-]	*k[b-]	*k[b-]
*>A	*>A	*>A	*>A
*M3/1	*M3/1	*M3/1	*M3/1
*met(O)	*met(O)	*met(O)	*met(O)
=1-	=1-	=1-	=1-
!!section: Et in terra pax
!!!OMD: Et in terra pax
0.r	0.r	1G	0.r
.	.	1d	.
.	.	1d	.
=2	=2	=2	=2
0.r	0.r	1e	1g
.	.	2d\	1dd
.	.	1f	.
.	.	.	1dd
.	.	4e\	.
.	.	4d\	.
=3	=3	=3	=3
0.r	0.r	2c\	1ee
.	.	2A/	.
.	.	2B-\	2dd\
.	.	2A/	1ff
.	.	1B-	.
.	.	.	4ee\
.	.	.	4dd\
=4	=4	=4	=4
0.r	0.r	1A	2cc\
.	.	.	2a/
.	.	2r	2b-\
.	.	1d	2a/
.	.	.	1b-
.	.	2B-\	.
=5	=5	=5	=5
0.r	0.r	2c\	1a
.	.	2d\	.
.	.	2.B-\	2r
.	.	.	1dd
.	.	4G/	.
.	.	2G/	.
.	.	2d\	2b-\
=6	=6	=6	=6
0.r	0.r	2e\	2cc\
.	.	2f\	2dd\
.	.	0g	2.b-\
.	.	.	4g/
.	.	.	2g/
.	.	.	2dd\
=7	=7	=7	=7
0.r	0.r	2r	2ee\
.	.	2d\	2ff\
.	.	2e\	1gg
.	.	2g\	.
.	.	2.f\	2r
.	.	.	2dd\
.	.	4e\	.
=8	=8	=8	=8
0.r	0.r	2c\	2ee\
.	.	2B-\	2gg\
.	.	2.d\	2.ff\
.	.	4c\	4ee\
.	.	2A/	2cc\
.	.	2G/	2b-\
=9	=9	=9	=9
0.r	0.r	2r	2.dd\
.	.	2G/	.
.	.	.	4cc\
.	.	2A/	2a/
.	.	2B-\	2g/
.	.	2.c\	2r
.	.	.	2g/
.	.	4B-\	.
=10	=10	=10	=10
0.r	0.r	2A/	2a/
.	.	2G/	2b-\
.	.	2r	2.cc\
.	.	2c\	.
.	.	.	4b-\
.	.	2d\	2a/
.	.	2e\	2g/
=11	=11	=11	=11
0.r	0.r	2.f\	2r
.	.	.	2cc\
.	.	4e\	.
.	.	2d\	2dd\
.	.	2c\	2ee\
.	.	2d\	2.ff\
.	.	2f\	.
.	.	.	4ee\
=12	=12	=12	=12
0.r	0.r	2g\	4dd\
.	.	.	4cc\
.	.	2.b-\	2.dd\
.	.	4a\	4cc\
.	.	2g\	2b-\
.	.	2f\	2a/
.	.	[2g\	4g/
.	.	.	4a/
=13	=13	=13	=13
0.r	1G	2g\]	4b-\
.	.	.	4cc\
.	.	4d\	1dd
.	.	4e\	.
.	1d	2f\	.
.	.	1g	2b-\
.	1d	.	1a
.	.	2f#i\	.
=14	=14	=14	=14
0.r	1.e	2g\	2r
.	.	2.c\	2g/
.	.	.	1cc
.	.	4B-\	.
.	2c\	2A/	.
.	2d\	1G	1b-
.	2e\	.	.
=15	=15	=15	=15
1D	2f\	1F	0a
.	2d\	.	.
1A	1e	1.c	.
1A	1f	.	1r
.	.	4B-\	.
.	.	4c\	.
=16	=16	=16	=16
2.B-\	1g	2d\	0.r
.	.	2B-\	.
4G\	.	.	.
2A\	2f\	2c\	.
2B-\	2.g\	2d\	.
2.c\	.	2e\	.
.	4f\	.	.
.	4e\	[2c\	.
4B-\	4d\	.	.
=17	=17	=17	=17
2A\	2f\	4c\]	0.r
.	.	4A/	.
2G\	1e	4B-\	.
.	.	4c\	.
2F\	.	2A/	.
2D\	1d	2F/	.
1E	.	2.G/	.
.	2c#i\	.	.
.	.	4A/	.
=18	=18	=18	=18
1D	1d	2B-\	0.r
.	.	2A/	.
1G	2r	2.B-\	.
.	2d\	.	.
.	.	8A/L	.
.	.	8G/J	.
2r	2d\	2.B-\	.
2G\	2d\	.	.
.	.	4c\	.
=19	=19	=19	=19
2G\	2.G/	1d	0.r
1G	.	.	.
.	4A/	.	.
.	2B-\	1r	.
2C/	2.c\	.	.
2.D\	.	1r	.
.	4B-\	.	.
.	2B-\	.	.
4E\	.	.	.
=20	=20	=20	=20
2F\	4A/	0.r	0.r
.	4G/	.	.
2G\	2B-\	.	.
2F\	2A/	.	.
2.G\	2G/	.	.
.	1A	.	.
4F#i\	.	.	.
4F#i\	.	.	.
4E\	.	.	.
=21	=21	=21	=21
0G	0.G	2d\	2r
.	.	2d\	2dd\
.	.	2d\	2dd\
.	.	2.G/	2dd\
1r	.	.	2.g/
.	.	4A/	.
.	.	4B-\	.
.	.	4c\	4a/
=22	=22	=22	=22
0.r	0.r	2d\	2b-\
.	.	2e\	2.cc\
.	.	2f\	.
.	.	.	4b-\
.	.	1g	2g/
.	.	.	1a
.	.	2f#i\	.
=23	=23	=23	=23
2r	2r	0g	0g
2G\	2B-\	.	.
2G\	2B-\	.	.
2G\	2B-\	.	.
2D\	1B-	1r	1r
2G\	.	.	.
=24	=24	=24	=24
2F\	2A/	0.r	0.r
2G\	2B-\	.	.
2A\	2c\	.	.
2D\	2.d\	.	.
1E	.	.	.
.	4Bni\	.	.
.	2c#i\	.	.
=25	=25	=25	=25
1D	0.d	2r	2r
.	.	2f\	2a/
0G	.	2.g\	2b-\
.	.	.	2g/
.	.	4f\	.
.	.	2d\	1b-
.	.	2g\	.
=26	=26	=26	=26
0.r	1r	2f\	2a/
.	.	2g\	2b-\
.	1r	2a\	2cc\
.	.	2d\	2.dd\
.	1r	1e	.
.	.	.	4bni\
.	.	.	2cc#i\
=27	=27	=27	=27
2r	[0.d	1d	2dd\
2G\	.	.	2.b-\
2G\	.	2r	.
.	.	.	4b-\
2G\	.	2g\	2b-\
2D\	.	2f\	2a/
2G\	.	2g\	2b-\
=28	=28	=28	=28
2F\	0d]	2a\	2a/
2G\	.	2d\	2b-\
1D	.	3%2fV	2a/
.	.	.	1b-
.	.	3d\Z	.
1E	1G	3B-\V	.
.	.	3.c\	.
.	.	.	4a/
.	.	.	4g/
.	.	6B-\Z	.
=29	=29	=29	=29
0D	1A	0d	2f/
.	.	.	2ff\
.	0B-	.	2ff\
.	.	.	2ee\
1G	.	2r	1dd
.	.	2d\	.
=30	=30	=30	=30
2r	1A	2e\	1cc
2F\	.	2f\	.
2.B-\	0G	2g\	0b-
.	.	4G/	.
4c\	.	4A/	.
1d	.	4B-\	.
.	.	4c\	.
.	.	4d\	.
.	.	4e\	.
=31	=31	=31	=31
0D	0.F	2f\	0a
.	.	1d	.
.	.	4c\	.
.	.	4B-\	.
2.F\	.	1A	2r
.	.	.	2a/
4E\	.	.	.
=32	=32	=32	=32
1C	1r	2r	2cc\
.	.	2e\	2g/
1r	1r	2g\	1b-
.	.	2d\	.
1r	2r	1f	1a
.	2A/	.	.
=33	=33	=33	=33
2r	2c\	1e	1r
2E\	2G/	.	.
2G\	1B-	1r	1r
2D\	.	.	.
2.F\	1A	1r	2r
.	.	.	2a/
4E\	.	.	.
=34	=34	=34	=34
1C	1r	2r	2cc\
.	.	2e\	2g/
1r	1r	2g\	1b-
.	.	2d\	.
1r	2r	1f	1a
.	2A/	.	.
=35	=35	=35	=35
2r	2c\	1e	1r
2E\	2G/	.	.
2G\	1B-	1r	1r
2D\	.	.	.
2.F\	1A	1r	2r
.	.	.	2a/
4G\	.	.	.
=36	=36	=36	=36
4A\	1r	2r	2cc\
4B-\	.	.	.
2c\	.	2e\	2g/
2.G\	1r	2g\	1b-
.	.	2d\	.
4F\	.	.	.
2D\	2r	2f\	1a
2F\	2A/	4c\	.
.	.	4d\	.
=37	=37	=37	=37
4C/	2c\	4e\	2.g/
4D\	.	4f\	.
4E\	2G/	2.g\	.
4F\	.	.	4f/
2G\	2B-\	.	2d/
.	.	4G/	.
2C/	2c\	2e-\	1g
1D	1A	[1dl	.
.	.	.	2f#i/
=38	=38	=38	=38
0.Gl	0.Gl	0.d]	0.gl
!!LO:LB:i:g=z
=39||	=39||	=39||	=39||
*>B	*>B	*>B	*>B
!!section: Qui tollis
!!!OMD: Qui tollis
*M2/1	*M2/1	*M2/1	*M2/1
*met(C|)	*met(C|)	*met(C|)	*met(C|)
0r	0r	0r	0g
=40	=40	=40	=40
0r	0r	0r	1dd
.	.	.	1dd
=41	=41	=41	=41
0r	0r	0r	1ee
.	.	.	1cc
=42	=42	=42	=42
0r	0r	0G	1dd
.	.	.	1ee
=43	=43	=43	=43
0r	0r	1d	1.ff
.	.	1d	.
.	.	.	4ee\
.	.	.	4dd\
=44	=44	=44	=44
0r	0r	1e	4cc\
.	.	.	4b-\
.	.	.	1cc
.	.	1c	.
.	.	.	4b-\
.	.	.	4a/
=45	=45	=45	=45
0r	0G	1d	4b-\
.	.	.	4a/
.	.	.	1b-
.	.	1e	.
.	.	.	4a/
.	.	.	4g/
=46	=46	=46	=46
0D	1d	1.f	0a
.	1d	.	.
.	.	4e\	.
.	.	4d\	.
=47	=47	=47	=47
1A	1e	4c\	0r
.	.	4B-\	.
.	.	1c	.
1A	1c	.	.
.	.	4B-\	.
.	.	4A/	.
=48	=48	=48	=48
1B-	1d	0G	0r
1G	1e	.	.
=49	=49	=49	=49
1A	1f	0r	0r
1B-	1d	.	.
=50	=50	=50	=50
1c	1e	0r	0r
2A\	1f	.	.
[2B-\	.	.	.
=51	=51	=51	=51
2B-\]	1.g	0r	0r
4A\	.	.	.
4G\	.	.	.
2B-\	.	.	.
2c\	4f\	.	.
.	4e\	.	.
=52	=52	=52	=52
1d	2f\	0r	0r
.	2d\	.	.
2D\	2f\	.	.
2E\	[2e\	.	.
=53	=53	=53	=53
2F\	4e\]	0r	0r
.	4d\	.	.
2G\	1d	.	.
1E	.	.	.
.	2c#i\	.	.
=54	=54	=54	=54
[0D	[0d	0r	1r
.	.	.	1d
=55	=55	=55	=55
0D]	0d]	0r	1a
.	.	.	1a
=56	=56	=56	=56
0r	0r	0G	1b-
.	.	.	1g
=57	=57	=57	=57
0D	0r	1d	1a
.	.	1d	1b-
=58	=58	=58	=58
1A	0r	1e	0cc
1A	.	1c	.
=59	=59	=59	=59
1B-	0G	1.d	0r
1B-	.	.	.
.	.	2e\	.
=60	=60	=60	=60
1B-	1d	1f	0r
1B-	1d	1g	.
=61	=61	=61	=61
1.A	1e	1a	0r
.	1c	[1A	.
4G\	.	.	.
4F\	.	.	.
=62	=62	=62	=62
2F\	1d	2A/]	0r
1G	.	1B-	.
.	1e	.	.
4F\	.	4A/	.
4E\	.	4G/	.
=63	=63	=63	=63
2.D\	0f	1d	0r
4E\	.	.	.
1F	.	2c\	.
.	.	[2f\	.
=64	=64	=64	=64
1.BB-	1r	4f\]	1.dd
.	.	4e\	.
.	.	4d\	.
.	.	4c\	.
.	[1f	1B-	.
2BB-/	.	.	2dd\
=65	=65	=65	=65
1BB-	2f\]	2r	1dd
.	2f\	1B-	.
1B-	2f\	.	1dd
.	2d\	2B-\	.
=66	=66	=66	=66
1A	1e	1c	1cc
1A	1f	1F	1cc
=67	=67	=67	=67
1G	2.g\	1.B-	2b-\
.	.	.	2g/
.	4f\	.	.
2.B-\	2d\	.	2.dd\
.	[2f\	2d\	.
4A\	.	.	4cc\
=68	=68	=68	=68
2F\	2f\]	2c\	2a/
2.G\	2e\	2B-\	2g/
.	2d\	1d	2b-\
4F\	.	.	.
4D\	[2f\	.	2a/
4E\	.	.	.
=69	=69	=69	=69
4F\	2f\]	1c	2r
4G\	.	.	.
2A\	2e\	.	2a/
2B-\	2d\	2r	2g/
2A\	[2f\	2c\	2a/
=70	=70	=70	=70
2B-\	2f\]	2d\	2d/
2G\	2g\	2B-\	1dd
1A	1e	2c\	.
.	.	[2A/	2cc\
=71	=71	=71	=71
0D	[0d	2A/]	2dd\
.	.	2.f\	2a/
.	.	.	2.ff\
.	.	4e\	.
.	.	[2d\	.
.	.	.	4ee\
=72	=72	=72	=72
2r	0d_	4d\]	4dd\
.	.	4c\	4cc\
2.B-\	.	4B-\	2.dd\
.	.	4A/	.
.	.	2G/	.
4A\	.	.	4cc\
2G\	.	[2d\	2b-\
=73	=73	=73	=73
2F\	0d_	2d\]	4a/
.	.	.	4g/
2G\	.	2B-\	1g
1D	.	1A	.
.	.	.	2f#i/
=74	=74	=74	=74
1G	0d]	0G	0g
2r	.	.	.
2G\	.	.	.
=75	=75	=75	=75
2G\	0r	2r	0r
1B-	.	2d\	.
.	.	2d\	.
4A\	.	[2f\	.
4G\	.	.	.
=76	=76	=76	=76
2F\	0r	2f\]	0r
2G\	.	4e\	.
.	.	4d\	.
2A\	.	2c\	.
2B-\	.	2d\	.
=77	=77	=77	=77
2c\	0r	2e\	1r
2A\	.	2f\	.
[1G	.	2g\	2r
.	.	2e\	2g/
=78	=78	=78	=78
1G]	2r	0d	2.b-\
.	2g\	.	.
.	.	.	4cc\
1r	2g\	.	4dd\
.	.	.	4ee\
.	2d\	.	[2ff\
=79	=79	=79	=79
0r	2.f\	0r	4ff\]
.	.	.	4ee\
.	.	.	1dd
.	4g\	.	.
.	1e	.	.
.	.	.	2cc#i\
=80	=80	=80	=80
2r	0d	1r	0dd
2.G\	.	.	.
.	.	2r	.
4G\	.	.	.
2G\	.	[2d\	.
=81	=81	=81	=81
2F\	0r	4d\]	0r
.	.	4d\	.
2D\	.	2d\	.
2E\	.	2c\	.
2F\	.	2A/	.
=82	=82	=82	=82
2.G\	2r	2B-\	1r
.	2g\	2c\	.
4F\	.	.	.
1D	2f\	2.d\	2r
.	2d\	.	2dd\
.	.	4c\	.
=83	=83	=83	=83
1r	2e\	1A	2cc\
.	2f\	.	2a/
[1G	1g	1r	2b-\
.	.	.	2cc\
=84	=84	=84	=84
2G\]	0r	1.d	1dd
2A\	.	.	.
2B-\	.	.	1r
2G\	.	2e\	.
=85	=85	=85	=85
2A\	0r	2f\	0r
2B-\	.	2d\	.
2.c\	.	2e\	.
.	.	2f\	.
4B-\	.	.	.
=86	=86	=86	=86
2G\	0r	2.g\	0r
1B-	.	.	.
.	.	4f\	.
.	.	2d\	.
2A\	.	[2f\	.
=87	=87	=87	=87
2F\	0r	2f\]	0r
1A	.	2e\	.
.	.	2c\	.
2F\	.	[2d\	.
=88	=88	=88	=88
1E	1r	4d\]	0r
.	.	4c#i\	.
.	.	4c#i\	.
.	.	4Bni\	.
1D	2r	1d	.
.	2d\	.	.
=89	=89	=89	=89
0r	2d\	2r	1r
.	2B-\	2d\	.
.	2c\	2e\	2r
.	2d\	2f\	2dd\
=90	=90	=90	=90
0r	2G/	1g	2dd\
.	2G/	.	2b-\
.	2A/	2f\	2cc\
.	2B-\	2d\	2dd\
=91	=91	=91	=91
0r	1c	1e	2g/
.	.	.	2g/
.	2r	1d	2a/
.	2G/	.	2b-\
=92	=92	=92	=92
0r	2A/	0r	2.cc\
.	2.c\	.	.
.	.	.	4b-\
.	.	.	4a/
.	4B-\	.	4g/
.	2G/	.	[2b-\
=93	=93	=93	=93
0r	2B-\	0r	4b-\]
.	.	.	4a/
.	2c\	.	1g
.	1A	.	.
.	.	.	2f#i/
=94	=94	=94	=94
2r	2G/	1.d	2g/
2G\	1B-	.	4d/
.	.	.	4e/
2D\	.	.	4f/
.	.	.	4g/
2F\	2A/	2c\	2a/
=95	=95	=95	=95
2E-\	2c\	2.e-i\	2g/
1G	2B-\	.	2.b-\
.	.	4d\	.
.	2.d\	2B-\	.
.	.	.	4a/
2D\	.	2d\	4f/
.	4c\	.	4g/
=96	=96	=96	=96
2.F\	2A/	2c\	2.a/
.	2.c\	2A/	.
4E\	.	.	4g/
2C/	.	2c\	4e/
.	4B-\	.	4f/
2E-i\	2G/	2B-\	[2g/
=97	=97	=97	=97
2D\	2A/	1d	4g/]
.	.	.	4f/
2BB-/	2B-\	.	1f
1C	1G	1c	.
.	.	.	2e/
=98	=98	=98	=98
0D	0F	2r	1f
.	.	2A/	.
.	.	2.d\	2r
.	.	.	[2a/
.	.	4c\	.
=99	=99	=99	=99
0r	0r	4d\	4a/]
.	.	4e\	4g/
.	.	2f\	4a/
.	.	.	4b-\
.	.	2.c\	2cc\
.	.	.	[2g/
.	.	4B-\	.
=100	=100	=100	=100
0r	0r	4c\	4g/]
.	.	4d\	4f/
.	.	2.e-i\	4g/
.	.	.	4a/
.	.	.	2b-\
.	.	4d\	.
.	.	2g\	2g/
=101	=101	=101	=101
2.D\	2r	2.f\	0a
.	2.A/	.	.
4C/	.	4e\	.
4D\	.	2d\	.
4E\	4G/	.	.
2F\	4A/	2c\	.
.	4B-\	.	.
=102	=102	=102	=102
2.C/	2c\	2.e-i\	1r
.	2.G/	.	.
4BB-/	.	4d\	.
4C/	.	2c\	2r
4D\	4F/	.	.
[2E-i\	4G/	2B-\	[2g/
.	4A/	.	.
=103	=103	=103	=103
4E-\]	2B-\	2.e-i\	4g/]
4D\	.	.	4f/
2.E-i\	2.G/	.	4g/
.	.	4d\	4a/
.	.	2B-\	2.b-\
4D\	4F/	.	.
4E-\	4G/	2c\	.
4F\	4A/	.	4a/
=104	=104	=104	=104
2D\	2B-\	2d\	2f/
2.E-i\	2G/	2B-\	2.g/
.	2.B-\	2e-i\	.
4D\	.	.	4f/
4BB-/	.	[2d\	[2b-\
4C/	4A/	.	.
=105	=105	=105	=105
2D\	2F/	2d\]	4b-\]
.	.	.	4a/
2E-i\	2G/	2c\	1g
1D	1A	[1dl	.
.	.	.	2f#i/
=106	=106	=106	=106
0Gl	0Gl	0d]	0gl
==	==	==	==
*-	*-	*-	*-
!!!RDF**kern: %=rational rhythm
!!!rscale-alt: 1/2
!!!RDF**kern: V=start of tuplet marker
!!!RDF**kern: Z=end of tuplet marker
!!!RDF**kern: l=long note in original notation
!!!RDF**kern: i=editorial accidental
!!!ENC: Jesse Rodin; Victoria Chang 2011/04/01/
!!!END: 2011/04/01/
!!!EED:	Jesse Rodin
!!!EEV:	2011/04/06/
!!attribution-level@Jos: 1 (secure)
!!!ONB:	Translated from MusicXML and edited on 2011/04/06/ by Craig Sapp
!!muse2ps: T^@{OPR}^u^@{ONM}{. }@{OTL}^C^@{COM}\n@{SCT}^i2I100v85,90,85,150c120Q16
!!onb: tie removed from Tenor voice G in m97 [2011/04/06/]
